images/badges/9.svg

<?xml version="1.0" encoding="UTF-8" standalone="no"?>
<!-- Created with Inkscape (http://www.inkscape.org/) -->

<svg
   width="32"
   height="32"
   viewBox="0 0 32 32"
   version="1.1"
   id="svg5"
   inkscape:version="1.2.1 (9c6d41e410, 2022-07-14)"
   sodipodi:docname="unrated.svg"
   xmlns:inkscape="http://www.inkscape.org/namespaces/inkscape"
   xmlns:sodipodi="http://sodipodi.sourceforge.net/DTD/sodipodi-0.dtd"
   xmlns:xlink="http://www.w3.org/1999/xlink"
   xmlns="http://www.w3.org/2000/svg"
   xmlns:svg="http://www.w3.org/2000/svg">
  <sodipodi:namedview
     id="namedview7"
     pagecolor="#ffffff"
     bordercolor="#000000"
     borderopacity="0.25"
     inkscape:showpageshadow="2"
     inkscape:pageopacity="0.0"
     inkscape:pagecheckerboard="0"
     inkscape:deskcolor="#d1d1d1"
     inkscape:document-units="px"
     showgrid="false"
     inkscape:zoom="5.6568543"
     inkscape:cx="34.294679"
     inkscape:cy="22.273864"
     inkscape:window-width="1560"
     inkscape:window-height="874"
     inkscape:window-x="40"
     inkscape:window-y="26"
     inkscape:window-maximized="1"
     inkscape:current-layer="layer1" />
  <defs
     id="defs2">
    <inkscape:path-effect
       effect="powerclip"
       id="path-effect3971"
       is_visible="true"
       lpeversion="1"
       inverse="true"
       flatten="false"
       hide_clip="false"
       message="Use fill-rule evenodd on &lt;b&gt;fill and stroke&lt;/b&gt; dialog if no flatten result after convert clip to paths." />
    <inkscape:path-effect
       effect="powermask"
       id="path-effect2178"
       is_visible="true"
       lpeversion="1"
       uri="#mask-powermask-path-effect2178"
       invert="false"
       hide_mask="false"
       background="true"
       background_color="#ffffffff" />
    <inkscape:path-effect
       effect="powermask"
       id="path-effect2157"
       is_visible="true"
       lpeversion="1"
       uri="#mask-powermask-path-effect2157"
       invert="false"
       hide_mask="false"
       background="true"
       background_color="#ffffffff" />
    <inkscape:path-effect
       effect="powermask"
       id="path-effect2130"
       is_visible="true"
       lpeversion="1"
       uri="#mask-powermask-path-effect2130"
       invert="false"
       hide_mask="false"
       background="true"
       background_color="#ffffffff" />
    <inkscape:path-effect
       effect="powerclip"
       id="path-effect1229"
       is_visible="true"
       lpeversion="1"
       inverse="true"
       flatten="false"
       hide_clip="false"
       message="Use fill-rule evenodd on &lt;b&gt;fill and stroke&lt;/b&gt; dialog if no flatten result after convert clip to paths." />
    <inkscape:path-effect
       effect="bspline"
       id="path-effect1405"
       is_visible="true"
       lpeversion="1"
       weight="33.333333"
       steps="2"
       helper_size="0"
       apply_no_weight="true"
       apply_with_weight="true"
       only_selected="false" />
    <linearGradient
       inkscape:collect="always"
       id="linearGradient925">
      <stop
         style="stop-color:#7a5322;stop-opacity:1;"
         offset="0"
         id="stop921" />
      <stop
         style="stop-color:#e5f038;stop-opacity:1;"
         offset="1"
         id="stop923" />
    </linearGradient>
    <linearGradient
       inkscape:collect="always"
       xlink:href="#linearGradient925"
       id="linearGradient927"
       x1="0"
       y1="16"
       x2="32"
       y2="16"
       gradientUnits="userSpaceOnUse"
       gradientTransform="translate(-10.143594,5.8564065)" />
    <clipPath
       clipPathUnits="userSpaceOnUse"
       id="clipPath1219">
      <g
         id="g1227"
         style="display:block">
        <rect
           style="fill:#000000;stroke:none;stroke-width:18.5154;stroke-linecap:round;stroke-linejoin:round"
           id="rect1221"
           width="2.9801893"
           height="3.0530891"
           x="7.6381598"
           y="12.185005" />
        <rect
           style="fill:#000000;stroke:none;stroke-width:18.5154;stroke-linecap:round;stroke-linejoin:round"
           id="rect1223"
           width="2.9801893"
           height="3.0530891"
           x="12.770882"
           y="12.185005" />
        <rect
           style="fill:#000000;stroke:none;stroke-width:30.5492;stroke-linecap:round;stroke-linejoin:round"
           id="rect1225"
           width="8.1129112"
           height="3.0530891"
           x="7.6381598"
           y="16.283831" />
      </g>
    </clipPath>
    <clipPath
       clipPathUnits="userSpaceOnUse"
       id="clipPath1219-3">
      <g
         id="g1227-5"
         style="display:none">
        <rect
           style="fill:#000000;stroke:none;stroke-width:18.5154;stroke-linecap:round;stroke-linejoin:round"
           id="rect1221-6"
           width="2.9801893"
           height="3.0530891"
           x="7.6381598"
           y="12.185005"
           d="m 7.6381598,12.185005 h 2.9801892 v 3.053089 H 7.6381598 Z" />
        <rect
           style="fill:#000000;stroke:none;stroke-width:18.5154;stroke-linecap:round;stroke-linejoin:round"
           id="rect1223-2"
           width="2.9801893"
           height="3.0530891"
           x="12.770882"
           y="12.185005"
           d="m 12.770882,12.185005 h 2.980189 v 3.053089 h -2.980189 z" />
        <rect
           style="fill:#000000;stroke:none;stroke-width:30.5492;stroke-linecap:round;stroke-linejoin:round"
           id="rect1225-9"
           width="8.1129112"
           height="3.0530891"
           x="7.6381598"
           y="16.283831"
           d="M 7.6381598,16.283831 H 15.751071 V 19.33692 H 7.6381598 Z" />
      </g>
      <path
         id="lpe_path-effect1229-1"
         class="powerclip"
         d="M 0.97999477,4.430975 H 22.594233 V 26.045213 H 0.97999477 Z m 6.65816503,7.75403 v 3.053089 h 2.9801892 v -3.053089 z m 5.1327222,0 v 3.053089 h 2.980189 v -3.053089 z m -5.1327222,4.098826 v 3.053089 h 8.1129112 v -3.053089 z" />
    </clipPath>
    <inkscape:path-effect
       effect="powerclip"
       id="path-effect1229-2"
       is_visible="true"
       lpeversion="1"
       inverse="true"
       flatten="false"
       hide_clip="false"
       message="Use fill-rule evenodd on &lt;b&gt;fill and stroke&lt;/b&gt; dialog if no flatten result after convert clip to paths." />
    <clipPath
       clipPathUnits="userSpaceOnUse"
       id="clipath_lpe_path-effect1229-2">
      <g
         id="g1395"
         style="display:block">
        <rect
           style="fill:#000000;stroke:none;stroke-width:18.5154;stroke-linecap:round;stroke-linejoin:round"
           id="rect1389"
           width="2.9801893"
           height="3.0530891"
           x="7.6381598"
           y="12.185005" />
        <rect
           style="fill:#000000;stroke:none;stroke-width:18.5154;stroke-linecap:round;stroke-linejoin:round"
           id="rect1391"
           width="2.9801893"
           height="3.0530891"
           x="12.770882"
           y="12.185005" />
        <rect
           style="fill:#000000;stroke:none;stroke-width:30.5492;stroke-linecap:round;stroke-linejoin:round"
           id="rect1393"
           width="8.1129112"
           height="3.0530891"
           x="7.6381598"
           y="16.283831" />
      </g>
    </clipPath>
    <clipPath
       clipPathUnits="userSpaceOnUse"
       id="clipPath1219-36">
      <g
         id="g1227-0"
         style="display:none">
        <rect
           style="fill:#000000;stroke:none;stroke-width:18.5154;stroke-linecap:round;stroke-linejoin:round"
           id="rect1221-62"
           width="2.9801893"
           height="3.0530891"
           x="7.6381598"
           y="12.185005"
           d="m 7.6381598,12.185005 h 2.9801892 v 3.053089 H 7.6381598 Z" />
        <rect
           style="fill:#000000;stroke:none;stroke-width:18.5154;stroke-linecap:round;stroke-linejoin:round"
           id="rect1223-6"
           width="2.9801893"
           height="3.0530891"
           x="12.770882"
           y="12.185005"
           d="m 12.770882,12.185005 h 2.980189 v 3.053089 h -2.980189 z" />
        <rect
           style="fill:#000000;stroke:none;stroke-width:30.5492;stroke-linecap:round;stroke-linejoin:round"
           id="rect1225-1"
           width="8.1129112"
           height="3.0530891"
           x="7.6381598"
           y="16.283831"
           d="M 7.6381598,16.283831 H 15.751071 V 19.33692 H 7.6381598 Z" />
      </g>
      <path
         id="lpe_path-effect1229"
         class="powerclip"
         d="M 0.97999477,4.430975 H 22.594233 V 26.045213 H 0.97999477 Z m 6.65816503,7.75403 v 3.053089 h 2.9801892 v -3.053089 z m 5.1327222,0 v 3.053089 h 2.980189 v -3.053089 z m -5.1327222,4.098826 v 3.053089 h 8.1129112 v -3.053089 z" />
    </clipPath>
    <inkscape:path-effect
       effect="powerclip"
       id="path-effect1229-8"
       is_visible="true"
       lpeversion="1"
       inverse="true"
       flatten="false"
       hide_clip="false"
       message="Use fill-rule evenodd on &lt;b&gt;fill and stroke&lt;/b&gt; dialog if no flatten result after convert clip to paths." />
    <clipPath
       clipPathUnits="userSpaceOnUse"
       id="clipath_lpe_path-effect1229-8">
      <g
         id="g1501"
         style="display:block">
        <rect
           style="fill:#000000;stroke:none;stroke-width:18.5154;stroke-linecap:round;stroke-linejoin:round"
           id="rect1495"
           width="2.9801893"
           height="3.0530891"
           x="7.6381598"
           y="12.185005" />
        <rect
           style="fill:#000000;stroke:none;stroke-width:18.5154;stroke-linecap:round;stroke-linejoin:round"
           id="rect1497"
           width="2.9801893"
           height="3.0530891"
           x="12.770882"
           y="12.185005" />
        <rect
           style="fill:#000000;stroke:none;stroke-width:30.5492;stroke-linecap:round;stroke-linejoin:round"
           id="rect1499"
           width="8.1129112"
           height="3.0530891"
           x="7.6381598"
           y="16.283831" />
      </g>
    </clipPath>
    <mask
       maskUnits="userSpaceOnUse"
       id="mask-powermask-path-effect2130" />
    <mask
       maskUnits="userSpaceOnUse"
       id="mask-powermask-path-effect2157" />
    <mask
       maskUnits="userSpaceOnUse"
       id="mask-powermask-path-effect2178" />
    <clipPath
       clipPathUnits="userSpaceOnUse"
       id="clipPath3967">
      <path
         style="display:none;fill:#ff0000;stroke:none;stroke-width:2.83614;stroke-linecap:round;stroke-linejoin:round;stroke-dasharray:none"
         d="m 8.9620984,12.457839 19.5264396,10.116256 1.730594,0.03641 c 0,0 -1.58709,-16.8008541 -1.880856,-17.0597658 C 28.044511,5.2918235 11.149223,0.04444566 11.149223,0.04444566 L 5.0772038,4.0795304 Z"
         id="path3969" />
      <path
         id="lpe_path-effect3971"
         style="fill:#ff0000;stroke:none;stroke-width:2.83614;stroke-linecap:round;stroke-linejoin:round;stroke-dasharray:none"
         class="powerclip"
         d="M -3.0293714,-1.7784497 H 33.77845 V 35.029371 H -3.0293714 Z M 8.9620984,12.457839 28.488538,22.574095 l 1.730594,0.03641 c 0,0 -1.58709,-16.8008541 -1.880856,-17.0597658 C 28.044511,5.2918235 11.149223,0.04444566 11.149223,0.04444566 L 5.0772038,4.0795304 Z" />
    </clipPath>
    <clipPath
       clipPathUnits="userSpaceOnUse"
       id="clipPath3977">
      <path
         style="fill:#ff0000;stroke:none;stroke-width:2.83614;stroke-linecap:round;stroke-linejoin:round;stroke-dasharray:none"
         d="M 9.0067611,12.426253 28.533201,22.54251 30.263795,22.57892 28.634406,6.949359 15.096824,-0.33787635 5.9183273,0.97696901 9.0067611,12.426253"
         id="path3979" />
    </clipPath>
  </defs>
  <g
     inkscape:label="Vrstva 1"
     inkscape:groupmode="layer"
     id="layer1">
    <circle
       style="fill:url(#linearGradient927);fill-opacity:1;stroke-width:10.519;stroke-linecap:round"
       id="path234"
       cx="5.8564067"
       cy="21.856407"
       r="16"
       transform="rotate(-30)" />
    <g
       id="g5908"
       transform="translate(-1.3727576)">
      <path
         sodipodi:type="star"
         style="display:inline;fill:#ffffff;stroke:#ffffff;stroke-width:2.5;stroke-linecap:round;stroke-linejoin:round;stroke-dasharray:none"
         id="path3868"
         inkscape:flatsided="false"
         sodipodi:sides="5"
         sodipodi:cx="16"
         sodipodi:cy="16"
         sodipodi:r1="12.938824"
         sodipodi:r2="6.4694123"
         sodipodi:arg1="-0.78539816"
         sodipodi:arg2="-0.15707963"
         inkscape:rounded="0"
         inkscape:randomized="0"
         d="m 25.14913,6.8508701 -2.759367,8.1370909 5.138813,6.886142 -8.591524,-0.109814 -4.96113,7.015236 -2.550487,-8.20496 -8.2049603,-2.550487 7.0152363,-4.96113 -0.109814,-8.5915244 6.886142,5.1388133 z"
         inkscape:transform-center-x="0.78434917"
         inkscape:transform-center-y="-2.1327886"
         transform="matrix(-0.13489735,0.87109553,-0.87109553,-0.13489735,32.213474,4.3477046)"
         clip-path="url(#clipPath3967)"
         inkscape:path-effect="#path-effect3971" />
      <path
         sodipodi:type="star"
         style="display:inline;fill:#ffffff;stroke:#ffffff;stroke-width:2.5;stroke-linecap:round;stroke-linejoin:round;stroke-dasharray:none"
         id="path3868-2"
         inkscape:flatsided="false"
         sodipodi:sides="5"
         sodipodi:cx="16"
         sodipodi:cy="16"
         sodipodi:r1="12.938824"
         sodipodi:r2="6.4694123"
         sodipodi:arg1="-0.78539816"
         sodipodi:arg2="-0.15707963"
         inkscape:rounded="0"
         inkscape:randomized="0"
         d="m 25.14913,6.8508701 -2.759367,8.1370909 5.138813,6.886142 -8.591524,-0.109814 -4.96113,7.015236 -2.550487,-8.20496 -8.2049603,-2.550487 7.0152363,-4.96113 -0.109814,-8.5915244 6.886142,5.1388133 z"
         inkscape:transform-center-x="0.78434917"
         inkscape:transform-center-y="-2.1327886"
         transform="matrix(-0.13489735,0.87109553,-0.87109553,-0.13489735,34.748065,4.5701477)"
         clip-path="url(#clipPath3977)" />
    </g>
    <path
       style="fill:#ffffff;stroke:none;stroke-width:4.14763;stroke-linecap:round;stroke-linejoin:round;stroke-dasharray:none;stroke-opacity:1"
       d="m 19.738301,9.910218 0.21996,-7.5519997 2.126291,0.07332 z"
       id="path5973" />
    <path
       style="fill:#ffffff;stroke:none;stroke-width:4.14763;stroke-linecap:round;stroke-linejoin:round;stroke-dasharray:none;stroke-opacity:1"
       d="m 20.293173,10.044569 5.376356,-5.3080944 1.486644,1.5219659 z"
       id="path5973-8" />
  </g>
  <g
     inkscape:groupmode="layer"
     id="layer2"
     inkscape:label="Vrstva 2" />
</svg>

<?xml version="1.0" encoding="UTF-8"?>
<!-- Created with Inkscape (http://www.inkscape.org/) -->
<svg id="svg5" width="32" height="32" version="1.1" viewBox="0 0 32 32" xmlns="http://www.w3.org/2000/svg" xmlns:xlink="http://www.w3.org/1999/xlink">
 <defs id="defs2">
  <linearGradient id="linearGradient927" x2="32" y1="16" y2="16" gradientTransform="translate(-10.144 5.8564)" gradientUnits="userSpaceOnUse">
   <stop id="stop921" stop-color="#7a5322" offset="0"/>
   <stop id="stop923" stop-color="#e5f038" offset="1"/>
  </linearGradient>
  <clipPath id="clipPath3967">
   <path id="path3969" d="m8.9621 12.458 19.526 10.116 1.7306 0.03641s-1.5871-16.801-1.8809-17.06c-0.29376-0.25892-17.189-5.5063-17.189-5.5063l-6.072 4.0351z" display="none" fill="#f00"/>
   <path id="lpe_path-effect3971" class="powerclip" d="m-3.0294-1.7784h36.808v36.808h-36.808zm11.991 14.236 19.526 10.116 1.7306 0.03641s-1.5871-16.801-1.8809-17.06c-0.29376-0.25892-17.189-5.5063-17.189-5.5063l-6.072 4.0351z" fill="#f00"/>
  </clipPath>
  <clipPath id="clipPath3977">
   <path id="path3979" d="m9.0068 12.426 19.526 10.116 1.7306 0.03641-1.6294-15.63-13.538-7.2872-9.1785 1.3148 3.0884 11.449" fill="#f00"/>
  </clipPath>
 </defs>
 <g id="layer1">
  <circle id="path234" transform="rotate(-30)" cx="5.8564" cy="21.856" r="16" fill="url(#linearGradient927)" stroke-linecap="round" stroke-width="10.519"/>
  <g id="g5908" transform="translate(-1.3728)" fill="#fff" stroke="#fff" stroke-linecap="round" stroke-linejoin="round" stroke-width="2.5">
   <path id="path3868" transform="matrix(-.1349 .8711 -.8711 -.1349 32.213 4.3477)" d="m25.149 6.8509-2.7594 8.1371 5.1388 6.8861-8.5915-0.10981-4.9611 7.0152-2.5505-8.205-8.205-2.5505 7.0152-4.9611-0.10981-8.5915 6.8861 5.1388z" clip-path="url(#clipPath3967)"/>
   <path id="path3868-2" transform="matrix(-.1349 .8711 -.8711 -.1349 34.748 4.5701)" d="m25.149 6.8509-2.7594 8.1371 5.1388 6.8861-8.5915-0.10981-4.9611 7.0152-2.5505-8.205-8.205-2.5505 7.0152-4.9611-0.10981-8.5915 6.8861 5.1388z" clip-path="url(#clipPath3977)"/>
  </g>
  <path id="path5973" d="m19.738 9.9102 0.21996-7.552 2.1263 0.07332z" fill="#fff"/>
  <path id="path5973-8" d="m20.293 10.045 5.3764-5.3081 1.4866 1.522z" fill="#fff"/>
 </g>
</svg>
